apps/settings/img/admin.svg

<svg width="16" height="16" version="1.1" viewbox="0 0 16 16" xmlns="http://www.w3.org/2000/svg"><path d="m1 1v4h4v-4h-4zm5 1v2h8v-2h-8zm-5 4v4h4v-4h-4zm5 1v2h8v-2h-8zm-5 4v4h4v-4h-4zm1 1h2v2h-2v-2zm4 0v2h8v-2h-8z"/></svg>

<svg xmlns="http://www.w3.org/2000/svg" width="16" height="16"><path d="M1 1v4h4V1H1zm5 1v2h8V2H6zM1 6v4h4V6H1zm5 1v2h8V7H6zm-5 4v4h4v-4H1zm1 1h2v2H2v-2zm4 0v2h8v-2H6z"/></svg>
